X: 1
T: Paddy Fahy's
M: 6/8
L: 1/8
R: jig
K: Ador
cBA EAB|cBc aed|c2A Gge|dBG A/B/cd|
cBA EAB|cBc abg|~f3 gfe|dBG A/B/cd:|
|:cBA ~a3|Ace aed|c2A Gge|dBG A/B/cd|
cBA ~a3|Ace abg|~f3 gfe|dBG A/B/cd:|
This is based on the box setting, but I can hear the concertina playing F#s in the 2nd bar |cBc afd| which I don't think sounds as good. I prefer to hear those come as a surprise towards the end of each part. I like to hear a dorian tune put its #6ths to good use like this!
